X:1
T:Rīts
T:Rīts
T:Edward Grieg
C:Edward Grieg
%%score { 1 | 2 } 3 { 4 | ( 5 6 ) }
L:1/8
M:6/8
K:Eb
V:1 treble nm="Accordion" snm="Acc."
V:2 bass 
V:3 treble transpose=-9 nm="Alto Saxophone" snm="A. Sax."
V:4 treble nm="Piano" snm="Pno."
V:5 bass 
V:6 bass 
V:1
 z6 |!p![Q:3/8=50] (BGF EFG) | (B{GA}GF EF/G/F/G/) |{GA} (BGB cGc | BGF E2) z | E,6 | E,6 | %7
 E,3 E,3 | G,3- G,2 z | (d=B=A GAB) | (d{=Bc}B=A GA/B/A/B/) |{=Bc} (dBd eBe | d=B=A G2) z | =B,6 | %14
 =B,6 | =B,3 C3 | D3 z z2 | (fdc Bc/d/c/d/) | z6 |!<(! (fdB) z z2 | (fdB) z z2!<)! |!f! (bgf efg) | %22
 (B{GA}GF EF/G/F/G/) |{GA} (BGB cGc | cAG F) z2 | (cAG FGA) | (c{AB}AG FG/A/G/A/) | %27
!<(!{AB} (cAc dAd) |{de} (dBd eBe) |{ef} (ece fcf)!<)! | %30
!ff! ([gg']/d'/=b/g/b/d'/)!>(! (d'/b/g/d/g/b/) | (=b/g/d/=B/d/g/) (g/d/B/G/B/d/)!>)! | %32
!p! z ([gc']c) z ([fc']c) |!<(! z ([ec']c) z ([fc']c)!<)! | %34
!ff!!>(! (!>![gg']/d'/=b/g/b/d'/) z!>)!!<(! ([ec']c)!<)! | %35
!ff! (!>![gg']/d'/=b/g/b/d'/) z!p! ([ec']c) | (=B/G/D/G/B/d/) (d/B/G/B/d/g/) | %37
!<(! (g/d/=B/d/g/=b/) (b/_g/e/g/b/e'/)!<)! |!ff! ([=e=e']/=b/a/e/a/b/)!>(! (b/a/e/=B/e/a/)!>)! | %39
 (a/=e/=B/A/B/e/) (e/B/A/=E/A/B/) |!p! z ([=e=a]=A) z ([da]A) |!<(! z ([c=a]=A) z ([da]A)!<)! | %42
!ff!!>(! (!>![=e=e']/=b/a/e/a/b/)!p!!<(! z ([c=a]=A)!>)!!<)! | %43
!ff!!>(! (!>![=e=e']/=b/a/e/a/b/)!p!!<(! z ([c=a]=A)!>)!!<)! | (A/=E/=B,/E/A/=B/) (B/A/E/A/B/=e/) | %45
 (=e/=B/A/B/e/a/)!<(! (a/_e/c/e/a/c'/)!<)! |!ff!!>(! ([_d_d']/a/f/d/f/a/) (d'/a/f/d/f/a/) | %47
 (_d'/a/f/_d/f/a/) (d'/a/f/d/f/a/)!>)! |!mp! ([f_d']/a/f/_d/f/a/)!mp! ([fd']/a/f/d/f/a/) | %49
!mp! ([_fc']/a/f/c/f/a/) ([fc']/a/f/c/f/a/) | ([=e=b]/a/e/=B/e/a/) ([eb]/a/e/B/e/a/) | %51
 ([=e=b]/a/e/=B/e/a/) ([eb]/a/e/B/e/a/) | ([=e=b]/a/e/=B/e/a/) ([eb]/a/e/_d/e/a/) | %53
 ([=e=b]/a/e/=B/e/a/) ([eb]/a/e/B/e/a/) |!mp! ([=e=b]/a/e/_c/e/a/) ([eb]/a/e/c/e/a/) | %55
!mp! ([e=b]/g/e/=B/e/g/) ([eb]/g/e/B/e/g/) | ([eb]/g/e/B/e/g/) ([eb]/g/e/B/e/g/) | %57
 ([eb]/g/e/B/e/g/) ([eb]/g/e/B/e/g/) |!mp! ([eb]/g/e/B/e/g/) ([ec']/g/e/c/e/g/) | %59
 ([eb]/g/e/B/e/g/) ([eb]/g/e/B/e/g/) | (!>![ec']/g/e/c/e/g/) ([eb]/g/e/B/e/g/) | %61
 (!>![ec']/g/e/c/e/g/) ([eb]/g/e/B/e/g/) | ([ec']/g/e/c/e/g/) ([ec']/g/e/c/e/g/) | z6 | %64
!mp! (B,3 A,3 | G,3 C3) | E6 | D6 | Tb2 z{=ab} Tb2 z | Tb2 z{=ab} Tb2 z | E6 | D2 z4 | %72
 Tb2 z{=ab} Tb2 z | z6 | Tb2 z D2 z | Tb2 z D2 z | z6 | z6 | z6 |!mp! (bgf efg) | (bgf ef/g/f/g/) | %81
!<(! [B,EGB]3!<)!!>(! [CEGc]3!>)! |!p!!<(! [B,EGB]3 [CEGc]3 | [Begb]6 | [cegc']6!<)! | %85
!>(! !>![egbe']6- | [egbe']6-!>)! |!p! [egbe']2 z z2 z |] %88
V:2
 z6 | z6 | z6 | z6 | x6 | z6 | z6 | z6 | z6 | z6 | z6 | z6 | z6 | z6 | z6 | z6 | z6 | z6 | z6 | %19
 F3 D3 | F3 D3 |!f! B,,6 | B,,6 | B,,3 C,3 | C,3- C, z2 | C,6 | C,6 | C,3 D,3 | D,3 E,3 | E,3 F,3 | %30
!ff! G,6- | G,2 z4 | z6 | z6 | z6 | z6 | z6 | z6 | z6 | z6 | z6 | z6 | z6 | z6 | z6 | z6 | z6 | %47
 z6 | z6 | z6 | z6 | z6 | z6 | z6 | z6 | z6 | z6 | z6 | z6 | z6 | z6 | z6 | z6 | z6 | z6 | z6 | %66
 z6 | z6 | z6 | z6 | z6 | z6 | z6 | z6 | z2 z z3 | z2 z z3 | z6 | z6 | z6 | z6 | z6 | z6 | z6 | %83
 z6 | z6 | z6 | z6 | z6 |] %88
V:3
[K:C] z6 |!p! E6 | E6 | E3 E3 | E3- E2 z | (GED CDE) | (G{EF}ED CD/E/D/E/) |{EF} (GEG AEA | %8
 B^G^F E2) z | ^G6 | ^G6 | ^G3 E3 | ^G3- G2 z | (B^G^F EFG) | (B{^GA}G^F EF/G/F/G/) | %15
{^GA} (BGB cAc | dBA G2) z | B6 | (dBA GA/B/A/B/) |!<(! B3 (dBG) | B3 (dBG)!<)! |!f! (ged cde) | %22
 (g{ef}ed cd/e/d/e/) |{ef} (geg aea | afe d) z2 | (afe def) | (a{fg}fe de/f/e/f/) |!<(! (afa bfb) | %28
 (bgb c'gc') | (c'ac' d'ad')!<)! |!ff! e3 z z2 | z6 |!p! (e3 d3 |!<(! c3 d3)!<)! | %34
!ff! e3!p!!<(! (c2 d)!<)! |!ff! e3!p! (c2 d) |!p! B2 z z2 z | z3!<(! c'3!<)! |!f! ^c'3 z z2 | z6 | %40
!p! (^c3 B3 | A3 B3) |!ff! ^c3!p!!<(! (A2 B)!<)! |!ff! ^c3!p! A2 B | ^G2 z z2 z | z2 z!<(! a3!<)! | %46
!ff!!>(! _b3 z z2 | z6!>)! |!p! (_B6 | A6) |!mp! ^G6- | G6 | (^G3 F3 | ^G3- G) z2 |!mp! (f6 | e6) | %56
 G6 | G6 | (G3 E3 | G3- G) z z | E3 G2 z | E3 G2 z | E3- E2 z | z6 |!mp! (ged cde | %65
 ged cd/e/d/e/) | geg a^fa | Tb6 | z6 | z6 | geg a^fa |!mp! Tb6{ab} | c'2 z4 |!mp! Tb6{ab} | %74
 c'2 z!mp! Tb3{ab} | c'2 z!mp! Tb3 | z6 |!p! B6 | B3 c3 | z6 | z6 |!mp! z (ed cde) | %82
 z ed cd/e/d/e/ | G6 |!<(! A6!<)! |!>(! c6!>)! | z6 | z6 |] %88
V:4
 z6 | [B,G]6 | [B,G]6 | [B,G]3 [G,E]3 | [B,G]3 B,G,F, | z6 | z6 | G,3 [G,C]3 | =B,3- B,2 z | %9
 [D=B]6 | [D=B]6 | [D=B]3 [=B,G]3 | [D=B]3 D=B,=A, | z6 | z6 | =B,3 C3 | D3 (z z z) | [Fd]6 | D6 | %19
!<(! [Fd]3 D3 | [Ad]3 [B,DA]3!<)! |!f! !arpeggio![B,EGB]6 | !arpeggio![B,EGB]6 | %23
 !arpeggio![B,EGB]3 !arpeggio![CEGc]3 | !arpeggio![CFAc]3 z z2 | !arpeggio![EAc]6 | %26
 !arpeggio![EAc]6 |!<(! !arpeggio![EAc]3 !arpeggio![FAd]3 | !arpeggio![FBd]3 !arpeggio![GBe]3 | %29
 !arpeggio![EAce]3 !arpeggio![FAcf]3!<)! | !arpeggio![G=Bdg]3 (g/d/) z z | z6 |!p! z6 | z6 | %34
!f! z6 |!ff! z6 | z6 | z2 z!mf!!<(! [E=A=B]3!<)! |!>(! [^G,=B,=E^G]3 (=e/=B/) z z | %39
 (=B/A/) z z (A/=E/) z z!>)! |!p! z6 |!<(! z6!<)! |!ff! A,3 z3 | A,3 z z2 | ^G,6- | %45
 G,3!<(! _G,3!<)! |!ff!!>(! [F,_D]2 z (f/_d/) z2 | (f/_d/) z z (f/d/) z z!>)! | (([_DFA-]6 | %49
 [C=EA]6)) |[K:bass]!mf! (=B,^G,^F, =E,F,G, | =B,^G,^F, =E,^F,/^G,/F,/G,/) | (=B,^G,B, ^CG,C) | %53
 =B,3- B, z2 |[K:treble] [=B,=E^G]6 | [=B,EG]6 |[K:bass] (B,G,F, E,F,G, | B,G,F, E,F,/G,/F,/G,/) | %58
 (B,G,B, CG,C) | B,3- B, z z | (CG,C) B,2 z | (CG,C) B,2 z | C6 | G,3 C3 | E3 E3 | E3 [CE]3 | %66
 [B,,E,]6 | A,6 |[K:treble]!mp! G,([B,F].[EG]) (!>![EG][B,F].[EG]) | %69
 (!>![EG][B,F].[EG]) (!>![EG][B,F].[EG]) |[K:bass] [B,,E,]6 | A,6 | %72
[K:treble] G, ([B,F].[EG]) (!>![EG][B,F].[EG]) | A,6 | G,([B,F].[EG]) A,2 z | %75
 G, ([B,F].[EG]) A,2 z | z6 |!p! !>![F,A,B,D]6 |!<(! !>![F,A,B,D]3 !>![F,A,B,E]3!<)! | G,6- | G,6 | %81
!mp! z6 | z6 | !arpeggio![G,B,E]6 |!<(! !arpeggio![CEGc]6!<)! |!>(! !arpeggio![EGBe]6- | %86
 [E-GB-e-]6!>)! | [EBe]2 z z2 z |] %88
V:5
 z6 | E,6 | E,6 | E,3 C,3 | E,3- E,2 z | [E,,B,,E,]6 | [E,,B,,E,]6 | [E,,B,,]3 C,3 | %8
 [G,,D,]3 (D=B,=A,) | G,6 | G,6 | G,3 E,3 | G,3 z z2 | [G,,D,G,]6 | [G,,D,G,]6 | [G,,D,]3 [C,G,]3 | %16
 [B,,F,]3 (FDC) | B,6 |[K:bass] [B,,F,]6 | B,3 [B,,F,]3 | B,3 [B,,A,]3 | !arpeggio![E,,B,,E,]6 | %22
 !arpeggio![E,,B,,E,]6 | !arpeggio![E,,B,,E,]3 !arpeggio![E,,C,E,]3 | %24
 !arpeggio![F,,C,F,]3 ([C,C][A,,A,][G,,G,]) | !arpeggio![F,,C,E,F,]6 | !arpeggio![F,,C,E,F,]6 | %27
 !arpeggio![F,,C,E,]3 !arpeggio![F,,D,F,]3 | !arpeggio![G,,D,F,]3 !arpeggio![G,,E,G,]3 | %29
 !arpeggio![A,,E,A,]3 !arpeggio![A,,F,A,]3 | %30
 !arpeggio![G,,D,G,]3[I:staff -1] g/d/[I:staff +1] z z | %31
[I:staff -1] (d/=B/)[I:staff +1] z z[I:staff -1] (B/G/)[I:staff +1] z z | [A,C]6- | [A,C]6 | %34
 !arpeggio![G,,D,=B,]3!p! [A,C]3 | !arpeggio![G,,D,=B,]3!p! [F,A,]3 | !arpeggio![G,,D,=B,]6- | %37
 [G,,D,B,]3 [_G,,=B,,E,]3 | [=E,,=B,,]3 z3 | z3 z3 | [F,=A,]6- | [F,A,]6 | %42
 [=E,,=B,,]3!p!!<(! [F,=A,]3!<)! |!f! [=E,,=B,,]3!p! [F,=A,]3 | [=E,,=B,,]6- | %45
 [E,,B,,]3 !arpeggio![_E,,A,,C,]3 | [_D,,A,,]3 z z z | z6 | z6 | z6 | z6 | z6 | %52
 [=E,,=B,,=E,]3 [^G,,E,^G,]3 | [=B,,=E,]3- [B,,E,] z z | z6 | z6 | z6 | z6 | [B,,E,]3 [G,,E,]3 | %59
 [B,,E,G,]3- [B,,E,G,] z2 | [G,,E,G,]3 [B,,E,G,]2 z | [G,,E,G,]3 [B,,E,G,]2 z | %62
 [G,,E,G,]3- [G,,E,G,]2 z | z6 | ([B,,G,B,]3 [C,A,]3 | [B,,G,]3 [A,,E,]3) | G,,3 _G,,3 | %67
 !arpeggio![F,,B,,]6 | !arpeggio![E,,B,,] z z4 | z6 |[K:bass] G,,3 _G,,3 | !arpeggio![F,,B,,]6 | %72
 !arpeggio![E,,B,,] z z4 | !arpeggio![F,,B,,]6 | !arpeggio![E,,B,,] z2 [F,,B,,]2 z | %75
 !arpeggio![E,,B,,] z2 [F,,B,,]2 z | z6 | [B,,,B,,]6 | [B,,,B,,]3 [B,,,B,,]3 | E,,6- | E,,6 | %81
 z (G,F, E,F,G,) | z G,F, E,F,/G,/F,/G,/ | B,,6 | !arpeggio![G,,E,G,]6 | !arpeggio![E,,B,,-E,-]6 | %86
 [B,,E,]6- | [B,,E,]2 z z2 z |] %88
V:6
 x6 | x6 | x6 | x6 | x6 | x6 | x6 | x6 | x6 | x6 | x6 | x6 | x6 | x6 | x6 | x6 | x6 | x6 | %18
[K:bass] x6 | x6 | x6 | x6 | x6 | x6 | x6 | x6 | x6 | x6 | x6 | x6 | x6 | x6 | x6 | x6 | x3 z2 z | %35
 x6 | x6 | x6 | x6 | x6 | x6 | x6 | x6 | x3[I:staff -1] C2 D | x6 | x6 | x6 | x6 | x6 | x6 | %50
[I:staff +1]{/=B,,,} =B,,6 | =B,,6 | x6 | x6 | x6 | x6 |{/B,,,} B,,6 | B,,6 | x6 | x6 | x6 | x6 | %62
 x6 | x6 | x6 | x6 | x6 | x6 | x6 | x6 |[K:bass] x6 | x6 | x6 | x6 | x6 | x6 | x6 | x6 | x6 | %79
 B,,3 C,3 | B,,3 C,3 | x6 | x6 | x6 | x6 | x2 z !///-!E,,,3/2 E,,3/2 | !///-!E,,,3 E,,3 | %87
 E,,,2 x4 |] %88

